actions/16/bookmark-remove.svg

<svg xmlns="http://www.w3.org/2000/svg" viewBox="0 0 16 16">
  <defs id="defs3051">
    <style type="text/css" id="current-color-scheme">
      .ColorScheme-Text {
        color:#808080;
      }
      .ColorScheme-NegativeText {
        color:#da4453;
      }
      </style>
  </defs>
 <g transform="translate(-421.71-531.79)">
 <path 
     style="fill:currentColor;fill-opacity:1;stroke:none" 
     d="m425.71 533.79v12l4-1.594v-1l-3 1.188v-9.594h6v5h1v-6h-7z"
     class="ColorScheme-Text"/>
<path style="fill:currentColor;fill-opacity:1;stroke:none" 
     class="ColorScheme-NegativeText"
     d="m431.42 540.82l-.707.707 1.793 1.793-1.793 1.793.707.707 1.793-1.793 1.793 1.793.707-.707-1.793-1.793 1.793-1.793-.707-.707-1.793 1.793z" 
     />
</g>
</svg>

<svg xmlns="http://www.w3.org/2000/svg" version="1.1" viewBox="0 0 16 16">
 <defs>
  <style id="current-color-scheme" type="text/css">
   .ColorScheme-Text { color:#808080; } .ColorScheme-NegativeText { color:#da4453; }
  </style>
 </defs>
 <g transform="translate(-421.71,-531.79)">
  <path class="ColorScheme-Text" d="M 425.71,533.79 V 545.79 L 429.71,544.2 V 543.2 L 426.71,544.38 V 534.79 H 432.71 V 539.79 H 433.71 V 533.79 H 426.71 Z" style="color:#808080;fill:currentColor"/>
  <path class="ColorScheme-NegativeText" d="M 431.42,540.82 430.71,541.53 432.51,543.32 430.71,545.11 431.42,545.82 433.21,544.03 435.01,545.82 435.71,545.11 433.92,543.32 435.71,541.53 435.01,540.82 433.21,542.61 Z" style="color:#da4453;fill:currentColor"/>
 </g>
</svg>
